ix/trade_twotone.svg

<svg viewBox="0 0 24 24" fill="none" xmlns="http://www.w3.org/2000/svg" height="1em" width="1em">
  <path d="M22 8.5C22 12.09 19.09 15 15.5 15C15.33 15 15.15 14.99 14.98 14.98C14.73 11.81 12.19 9.26999 9.01999 9.01999C9.00999 8.84999 9 8.67 9 8.5C9 4.91 11.91 2 15.5 2C19.09 2 22 4.91 22 8.5Z" stroke="#292D32" stroke-width="1.5" stroke-linecap="round" stroke-linejoin="round"/>
  <path d="M15 15.5C15 19.09 12.09 22 8.5 22C4.91 22 2 19.09 2 15.5C2 11.91 4.91 9 8.5 9C8.67 9 8.84999 9.00999 9.01999 9.01999C12.19 9.26999 14.73 11.81 14.98 14.98C14.99 15.15 15 15.33 15 15.5Z" stroke="#292D32" stroke-width="1.5" stroke-linecap="round" stroke-linejoin="round"/>
  <path opacity="0.4" d="M5.59 2H3C2.45 2 2 2.45 2 3V5.59C2 6.48 3.07999 6.92999 3.70999 6.29999L6.29999 3.70999C6.91999 3.07999 6.48 2 5.59 2Z" stroke="#292D32" stroke-width="1.5" stroke-linecap="round" stroke-linejoin="round"/>
  <path opacity="0.4" d="M18.4097 22.0003H20.9997C21.5497 22.0003 21.9997 21.5503 21.9997 21.0003V18.4103C21.9997 17.5203 20.9197 17.0703 20.2897 17.7003L17.6997 20.2903C17.0797 20.9203 17.5197 22.0003 18.4097 22.0003Z" stroke="#292D32" stroke-width="1.5" stroke-linecap="round" stroke-linejoin="round"/>
</svg>

<svg viewBox="0 0 24 24" fill="none" xmlns="http://www.w3.org/2000/svg" height="1em" width="1em">
  <path d="M22 8.5a6.5 6.5 0 0 1-7.02 6.48 6.509 6.509 0 0 0-5.96-5.96A6.5 6.5 0 1 1 22 8.5Z" stroke="#292D32" stroke-width="1.5" stroke-linecap="round" stroke-linejoin="round"/>
  <path d="M15 15.5a6.5 6.5 0 1 1-13 0 6.5 6.5 0 0 1 13 0Z" stroke="#292D32" stroke-width="1.5" stroke-linecap="round" stroke-linejoin="round"/>
  <path opacity=".4" d="M5.59 2H3c-.55 0-1 .45-1 1v2.59c0 .89 1.08 1.34 1.71.71L6.3 3.71C6.92 3.08 6.48 2 5.59 2Zm12.82 20H21c.55 0 1-.45 1-1v-2.59c0-.89-1.08-1.34-1.71-.71l-2.59 2.59c-.62.63-.18 1.71.71 1.71Z" stroke="#292D32" stroke-width="1.5" stroke-linecap="round" stroke-linejoin="round"/>
</svg>
